X: 21
T: Catch me if you can
%R: jig
B: "Twenty Four Favourite Dances for the Year 1783", Thomas Straight, ed. p.11 #1
F: http://www.vwml.org/browse/browse-collections-dance-tune-books/browse-straights1783
Z: 2014 John Chambers <jc:trillian.mit.edu>
M: 6/8
L: 1/8
K: C
G |\
c>dc Bcd | f>ef e>dc | e/f/ge dBG | Bd2- d2G |\
c>dc Bcd | f>ef eag | fdg g2^f | g3- g2 :|
|: e |\
f>gf eag | f>ed B>AG | c>BA f>ed | (B3 G2)A/B/ |\
c>BA GFE | f>gf edc | e/f/ge dBG | Ac2- c2 :|
% - - - - - - - - - - Dance description: - - - - - - - - - -
%%begintext align
%% 1st Gent set to the 2d Lady & turn .|. 1st Lady
%% set to the 2d Gent & turn :|. lead down 2 Cu
%% up again & cast off right & left at top .|:
%% lead outsides :|:
%%endtext

%%sep 1 1 500
%%sep 1 1 500
